X: 1
M: C|
L: 1/8
K: C
ED |\
edce dcBd | cB AG D3E | CDEF GE cG | E2(DC) C2 |]
ed |\
c2gf efga | f2ed d2ed | c2gfefga | gfed c3d |\
edce dcBd | cBAG D3E | CDEF GE cG | E2(DC) C2 |]


